img/star-main.svg

<svg width="112" height="111" viewBox="0 0 112 111" fill="none" xmlns="http://www.w3.org/2000/svg">
<path d="M50.6344 108.652C50.1154 108.652 49.5838 108.601 49.0522 108.487C46.1158 107.893 43.8123 105.716 43.0402 102.817L35.9902 76.1489L10.0181 66.846C7.19561 65.8334 5.23378 63.3527 4.89204 60.3783C4.55031 57.4039 5.9046 54.5434 8.42334 52.9107L31.6109 37.9628L32.4336 10.3959C32.5222 7.39616 34.2689 4.7635 37.0028 3.51046C39.7241 2.27008 42.863 2.66243 45.1919 4.56097L66.5695 21.9897L93.0479 14.2562C95.9337 13.4209 98.9714 14.2562 100.997 16.4712C103.022 18.6862 103.617 21.7871 102.528 24.5843L92.5543 50.3033L108.097 73.0985C109.78 75.5793 109.92 78.7436 108.439 81.3509C106.971 83.9582 104.199 85.4771 101.199 85.3125L73.6574 83.781L56.7857 105.602C55.2795 107.551 53.0139 108.639 50.6217 108.639L50.6344 108.652ZM15.005 59.2265L39.5089 68.0104C41.9264 68.8838 43.7743 70.8836 44.4325 73.377L51.09 98.5391L67.0125 77.9462C68.582 75.9084 71.0754 74.7819 73.6321 74.9211L99.6169 76.3641L84.9601 54.8598C83.5046 52.7335 83.2008 50.0249 84.1248 47.6327L93.5289 23.3693L68.544 30.6723C66.0759 31.3938 63.4053 30.8496 61.4055 29.2295L41.2302 12.788L40.4455 38.7981C40.3696 41.3675 39.0279 43.747 36.8636 45.1393L14.9923 59.2392L15.005 59.2265Z" fill="#FFF8C4" stroke="#FFD359" stroke-width="3.94055" stroke-miterlimit="10"/>
</svg>

<svg width="112" height="111" fill="none" xmlns="http://www.w3.org/2000/svg"><path d="M50.634 108.652c-.519 0-1.05-.051-1.582-.165a7.793 7.793 0 0 1-6.012-5.67l-7.05-26.668-25.972-9.303a7.771 7.771 0 0 1-5.126-6.468 7.791 7.791 0 0 1 3.531-7.467l23.188-14.948.823-27.567a7.775 7.775 0 0 1 4.569-6.886 7.776 7.776 0 0 1 8.189 1.051L66.57 21.99l26.478-7.734c2.886-.835 5.923 0 7.949 2.215 2.025 2.215 2.62 5.316 1.531 8.113l-9.974 25.72 15.543 22.794c1.683 2.481 1.823 5.646.342 8.253a7.763 7.763 0 0 1-7.24 3.962L73.657 83.78l-16.871 21.821a7.756 7.756 0 0 1-6.164 3.037l.012.013ZM15.005 59.227l24.504 8.783a7.841 7.841 0 0 1 4.923 5.367l6.658 25.162 15.922-20.593a7.835 7.835 0 0 1 6.62-3.025l25.985 1.443L84.96 54.86a7.818 7.818 0 0 1-.835-7.227l9.404-24.264-24.985 7.303a7.852 7.852 0 0 1-7.138-1.442L41.23 12.788l-.784 26.01a7.825 7.825 0 0 1-3.582 6.341l-21.872 14.1.013-.012Z" fill="#FFF8C4" stroke="#FFD359" stroke-width="3.941" stroke-miterlimit="10"/></svg>
